X: 163
T: REEL: Tune for the Girls
C: C: Liz Carroll; S: Liz Carroll
C: Set Leaders: Oliushka, Anton
Z: [Unedited]; Bleedin' Heart at The Session
N: https://thesession.org/members/26966/sets/95966
R: Reel
M: 4/4
L: 1/8
Q: 1/2=100
K: Amix
|:CA,CD E3D|CEFG EDCA,|DA,D2 G3(G|G)DAD FGED|
CA,CD E3D|CEGF EDCA,|DFAF G3(G|G2)ED CA,A,2:||
|:cABG A3G|EA (3AAA EAAd|cABG A3G|ED (3DDD EDCD|
[1 cABG A3c|AGED CA,B,C|DFAD G3(G|G2)ED CA,A,2:||
[2 EAAA c3B|A3G E3C|DFAD G3(G|G2)ED CA,A,2||
A,EAd c2A,E|AcB2 G,B,DB,|A,EAd cAB2|G,B,DG BGDB,|
A,EAd c2A,E|AcB2 G,B,DB,|A,EAd cAB2|G,B,DG E3D||

